X:1
T:264. YESU SALAWA WA'AURI
M:3/4
L:1/4
K:C
C G C | E2 D | C E E | F | G G2 |]
G G G | c G E | A G E | D3 |'
C G C | E2 D | C E E | F | G G2 |'
G G G | c G E | A G E | D3 |'
D D D | b G, G, | F G E | D D2 |'
C E G | c G E | F E D | C C2 ||